Newaita-dark/actions/24/system-lock-screen.svg

<?xml version="1.0" encoding="UTF-8"?>
<svg xmlns="http://www.w3.org/2000/svg" xmlns:xlink="http://www.w3.org/1999/xlink" width="24pt" height="24pt" viewBox="0 0 24 24" version="1.1">
<defs>
<filter id="alpha" filterUnits="objectBoundingBox" x="0%" y="0%" width="100%" height="100%">
  <feColorMatrix type="matrix" in="SourceGraphic" values="0 0 0 0 1 0 0 0 0 1 0 0 0 0 1 0 0 0 1 0"/>
</filter>
<mask id="mask0">
  <g filter="url(#alpha)">
<rect x="0" y="0" width="24" height="24" style="fill:rgb(0%,0%,0%);fill-opacity:0.988235;stroke:none;"/>
  </g>
</mask>
<clipPath id="clip1">
  <rect x="0" y="0" width="24" height="24"/>
</clipPath>
<g id="surface5" clip-path="url(#clip1)">
<path style=" stroke:none;fill-rule:nonzero;fill:rgb(25.882354%,64.705884%,96.078432%);fill-opacity:1;" d="M 7.699219 7.886719 C 7.988281 7.59375 8.460938 7.59375 8.75 7.886719 L 16.117188 15.253906 C 16.40625 15.542969 16.40625 16.015625 16.117188 16.304688 C 15.828125 16.59375 15.355469 16.59375 15.066406 16.304688 L 7.699219 8.9375 C 7.40625 8.648438 7.40625 8.175781 7.699219 7.886719 Z M 7.699219 7.886719 "/>
</g>
<mask id="mask1">
  <g filter="url(#alpha)">
<rect x="0" y="0" width="24" height="24" style="fill:rgb(0%,0%,0%);fill-opacity:0.988235;stroke:none;"/>
  </g>
</mask>
<clipPath id="clip2">
  <rect x="0" y="0" width="24" height="24"/>
</clipPath>
<g id="surface8" clip-path="url(#clip2)">
<path style=" stroke:none;fill-rule:nonzero;fill:rgb(25.882354%,64.705884%,96.078432%);fill-opacity:1;" d="M 16.117188 7.886719 C 16.40625 8.175781 16.40625 8.648438 16.117188 8.9375 L 8.75 16.304688 C 8.460938 16.59375 7.988281 16.59375 7.699219 16.304688 C 7.40625 16.015625 7.40625 15.542969 7.699219 15.253906 L 15.066406 7.886719 C 15.355469 7.59375 15.828125 7.59375 16.117188 7.886719 Z M 16.117188 7.886719 "/>
</g>
<mask id="mask2">
  <g filter="url(#alpha)">
<rect x="0" y="0" width="24" height="24" style="fill:rgb(0%,0%,0%);fill-opacity:0.988235;stroke:none;"/>
  </g>
</mask>
<clipPath id="clip3">
  <rect x="0" y="0" width="24" height="24"/>
</clipPath>
<g id="surface11" clip-path="url(#clip3)">
<path style=" stroke:none;fill-rule:nonzero;fill:rgb(25.882354%,64.705884%,96.078432%);fill-opacity:1;" d="M 16.117188 7.886719 C 16.40625 8.175781 16.40625 8.648438 16.117188 8.9375 L 8.75 16.304688 C 8.460938 16.59375 7.988281 16.59375 7.699219 16.304688 C 7.40625 16.015625 7.40625 15.542969 7.699219 15.253906 L 15.066406 7.886719 C 15.355469 7.59375 15.828125 7.59375 16.117188 7.886719 Z M 16.117188 7.886719 "/>
</g>
</defs>
<g id="surface1">
<path style=" stroke:none;fill-rule:nonzero;fill:rgb(25.882354%,64.705884%,96.078432%);fill-opacity:1;" d="M 11.90625 1.179688 C 5.859375 1.179688 0.992188 6.046875 0.992188 12.09375 C 0.992188 18.140625 5.859375 23.011719 11.90625 23.011719 C 17.953125 23.011719 22.824219 18.140625 22.824219 12.09375 C 22.824219 6.046875 17.953125 1.179688 11.90625 1.179688 Z M 11.90625 2.667969 C 17.128906 2.667969 21.335938 6.871094 21.335938 12.09375 C 21.335938 17.316406 17.128906 21.523438 11.90625 21.523438 C 6.683594 21.523438 2.480469 17.316406 2.480469 12.09375 C 2.480469 6.871094 6.683594 2.667969 11.90625 2.667969 Z M 11.90625 2.667969 "/>
<use xlink:href="#surface5" mask="url(#mask0)"/>
<use xlink:href="#surface8" mask="url(#mask1)"/>
<use xlink:href="#surface11" mask="url(#mask2)"/>
</g>
</svg>

<svg xmlns="http://www.w3.org/2000/svg" xmlns:xlink="http://www.w3.org/1999/xlink" width="32" height="32" viewBox="0 0 24 24"><defs><filter id="a" filterUnits="objectBoundingBox" x="0%" y="0%" width="100%" height="100%"><feColorMatrix in="SourceGraphic" values="0 0 0 0 1 0 0 0 0 1 0 0 0 0 1 0 0 0 1 0"/></filter><mask id="f"><path fill-opacity=".988" d="M0 0h24v24H0z" filter="url(#a)"/></mask><clipPath id="b"><path d="M0 0h24v24H0z"/></clipPath><g id="e" clip-path="url(#b)"><path d="M7.7 7.887a.738.738 0 0 1 1.05 0l7.367 7.367c.29.289.29.762 0 1.05a.745.745 0 0 1-1.05 0L7.698 8.939a.738.738 0 0 1 0-1.051zm0 0" fill="#42a5f5"/></g><mask id="h"><path fill-opacity=".988" d="M0 0h24v24H0z" filter="url(#a)"/></mask><clipPath id="c"><path d="M0 0h24v24H0z"/></clipPath><g id="g" clip-path="url(#c)"><path d="M16.117 7.887c.29.289.29.761 0 1.05L8.75 16.306a.745.745 0 0 1-1.05 0 .738.738 0 0 1 0-1.051l7.366-7.367a.738.738 0 0 1 1.051 0zm0 0" fill="#42a5f5"/></g><mask id="j"><path fill-opacity=".988" d="M0 0h24v24H0z" filter="url(#a)"/></mask><clipPath id="d"><path d="M0 0h24v24H0z"/></clipPath><g id="i" clip-path="url(#d)"><path d="M16.117 7.887c.29.289.29.761 0 1.05L8.75 16.306a.745.745 0 0 1-1.05 0 .738.738 0 0 1 0-1.051l7.366-7.367a.738.738 0 0 1 1.051 0zm0 0" fill="#42a5f5"/></g></defs><path d="M11.906 1.18A10.89 10.89 0 0 0 .992 12.094a10.893 10.893 0 0 0 10.914 10.918 10.896 10.896 0 0 0 10.918-10.918A10.893 10.893 0 0 0 11.906 1.18zm0 1.488a9.408 9.408 0 0 1 9.43 9.426 9.41 9.41 0 0 1-9.43 9.43 9.408 9.408 0 0 1-9.426-9.43 9.404 9.404 0 0 1 9.426-9.426zm0 0" fill="#42a5f5"/><use xlink:href="#e" mask="url(#f)"/><use xlink:href="#g" mask="url(#h)"/><use xlink:href="#i" mask="url(#j)"/></svg>
